X:6
T:Wantage (2)
T:Rochdale Coconut Dance
M:4/4
L:1/8
K:G
P:A
|:z2|"Em"G2B2G2B2|"D"AGFGA2B2|"Em"G2B2G2B2|"D"AGFED4|
"Em"G2B2G2B2|"D"AGFGA2dc|"G"B2B2"D"ABcA|"Em"G2B2G2:|
P:B
|:F2|"Em"EFGFE2B2|"Em"EFGFE2B2|"Am"c2Ac"G"B2G(A|"B"A)GF2"Em"E2D2|
"Em"EFGFE2B2|"Em"EFGFE2B2|"Am"c2Ac"G"B2G(A|"B"A)GF2"Em"E2:|
